X:73
T:Under the Water. Ru2.073
%%VWML:RutherfordVol2-2249-p37-0
F:http://www.vwml.org/record/RutherfordVol2/2249/p37
B:RUTHERFORD Complete Collection of 200 Country Dances Vol.2; 1759.
Z:vmp.Mike Hicken 2015 www.village-music-project.org.uk
M:C|
K:A
agfe dcBA|agfe f2a2|agfe dcBA|aaAA c2e2 :|
|: A/B/c/d/ ec ecec|B/c/d/e/ fdfd a2|A/B/c/d/ ec ecec|agfe f2a2 :|
W:
W: The first Cu: cast off two Cu: .|  Cast up
W: again :|  Gallop down one Cu: up again &
W: cast off .|.  Hands round all six :|.
T:Highland Laddie. Ru2.074
L:1/8
B:RUTHERFORD Complete Collection of 200 Country Dances Vol.2; 1759.
Z:vmp.Mike Hicken 2015 www.village-music-project.org.uk
N: The final symbol of dance notation in the original is :|
M:C|
K:A
|:f|eAcA e2c2|fBBc fBBc|ecac e2c2|eAAc eAA :|
|: a|fe (f/g/a) f2 ec|fBBc bBBc|ef/g/ a>f e2c2|eAAc eAA :|
W:
W: First Man turns the 2d Wo. with his Right hand
W: & his partner with his Left .|  the first Wo. the
W: same with the 2d Wo. & her partner :|  cross over
W: two Cu: .|.  lead to the top foot it & cast off :|.  foot
W: it Corners & turn .||. lead our sides & turn :|
